X:1
T:Title
%%score { ( 1 4 ) | ( 2 3 ) }
L:1/8
Q:1/4=100
M:4/4
K:F
V:1 treble nm="Grand Piano"
V:4 treble 
V:2 bass 
V:3 bass 
V:1
 F2 C2 F2 [EG]2 | [FA]2 [EG]2 [FA]2 [FB]2 | [Fc]2 [Ec]2 [Fc]2 .[DFB]2 | [G,EG]8 | %4
w: Johann~Georg~Hille * * *||||
 [A,CF]2 [G,C]2 [A,DF]2 [CEG]2 | [CFA]2 [CEG]2 [CFA]2 [B,FB]2 | [Fc]2 [Ec]2 [Fc]2 .[DFB]2 | %7
w: |||
 [G,EG]8 | [Fc]2 [Ec]2 [Fc]2 [Fd]2 | .c2 z2 z4 | [FA]2 [EG]2 A2 B2 | AG [A,CF]2 [CEG]4 | %12
w: |||||
 [A,CF]2 [G,C]2 [A,DF]2 [CEG]2 | [CFA]2 [CEG]2 [CFA]2 [DB]2 | z2 .c2 z4 |[M:8/4] [A,F]8 z8 | %16
w: ||||
[M:4/4] [B,F]4 [A,F]4 |] %17
w: |
V:2
 [F,A,C]2 [E,G,]2 [D,A,D]2 [C,C]2 | [F,C]2 [C,C]2 [F,C]2 [D,B,]2 | [A,,F,]2 [C,G,]2 [F,A,]2 z A | %3
 C,8 | F,2 E,2 D,2 C,2 | F,2 C,2 F,2 D,2 | [A,,F,]2 [C,G,]2 [F,A,]2 z A | C,8 | %8
 [A,,F,]2 [C,G,]2 [F,A,]2 [B,,B,]2 | .[C,G,]2 [F,C]2 [C,C]4 | [F,C]2 [C,C]2 [F,CF]2 [E,G,C]2 | %11
 [F,A,C]2 F,,2 C,4 | F,2 E,2 D,2 C,2 | F,2 C,2 F,2 [D,F,]2 | [A,,F,]2 [B,,F,]2 [C,F,C]2 [C,E,B,]2 | %15
[M:8/4] [F,,F,]8 z8 |[M:4/4] [B,,D,]4 [F,,F,]4 |] %17
V:3
 x8 | x8 | z4 z2 B,,2 | x8 | x8 | x8 | z4 z2 B,,2 | x8 | x8 | x8 | x8 | x8 | x8 | x8 | x8 | %15
[M:8/4] x16 |[M:4/4] x8 |] %17
V:4
 x8 | x8 | x8 | x8 | x8 | x8 | x8 | x8 | x8 | E-[CEB] [FA]2 [EB]4 | x8 | x8 | x8 | x8 | %14
 [Cc]2 D-[DB] A2 G2 |[M:8/4] x16 |[M:4/4] x8 |] %17

